clearscreen

TO carre :taille :color
	setpencolor :color 
	repeat 4 [
  		fd :taille
		rt 90
	]
END

carre 100 4
carre 200 7

TO maison :hauteur
	carre :hauteur 7
	fd :hauteur
	rt (90-60)
	fd :hauteur
	rt (180-60)
	fd :hauteur
	rt (90-60)
	fd :hauteur
	rt 90
	fd :hauteur
	rt 90
END

maison 100
penup
lt 90
fd 300
rt 90
pendown
maison 200


fd 100
repeat 3 [
	rt 90
	fd 100
]

clearscreen
repeat 100 [
  carre 200
  rt (360 / 100)
]




