clearscreen

TO carre :taille
	repeat 4 [
  		fd :taille
		rt 90
	]
END

TO maison :hauteur
	carre :hauteur
	fd :hauteur
	rt (90-60)
	fd :hauteur
	rt (180-60)
	fd :hauteur
	rt (90-60)
	fd :hauteur
	rt 90
	fd :hauteur
	rt 90
END

maison 100
penup
lt 90
fd 300
rt 90
pendown
maison 200
